X:1
T:Farmer, 76.76 D
T:Farmer, 76.76 D
T:John Farmer, 1892
T:Public Domain Courtesy of the Cyber Hymnal™
C:John Farmer, 1892
Z:Public Domain
Z:Courtesy of the Cyber Hymnal™
%%score ( 1 2 ) ( 3 4 )
L:1/8
Q:1/4=115
M:4/4
K:C
V:1 treble 
V:2 treble 
V:3 bass 
V:4 bass 
V:1
 C2 | C3 C E2 G2 | A4 G2 G2 | [Ge]3 [Gc] [GB]2 [Gd]2 | [Gc]6 C2 | C3 C E2 G2 | A4 G2 [Ge]2 | %7
 [Gd]3 [GB] [GB]2 [^FA]2 | G4 z2 G2 | [Fd]3 [Fd] (cB) (AG) | [Ec]4 [EG]2 G2 | %11
 [Fd]3 [Fd] (cB) (AG) | [Ec]6 [Ec]2 | [Ec]3 [Ec] [Fc]2 [Gc]2 | [Ac]4 [FA]2 [FA]2 | %15
 [EG]2 [Ge]2 [Fd]3 [DB] | [Ec]6 |] %17
V:2
 C2 | C3 C E2 G2 | A4 G2 G2 | x8 | x6 C2 | C3 C E2 G2 | A4 G2 x2 | x8 | G4 G2 x2 | x4 F2 F2 | %10
 x6 G2 | x4 F2 F2 | x8 | x8 | x8 | x8 | x6 |] %17
V:3
 C,2 | C,3 C, E,2 G,2 | A,4 G,2 G,2 | [G,C]3 [G,E] [G,D]2 [G,F]2 | [C,E]6 C,2 | C,3 C, E,2 G,2 | %6
 A,4 G,2 [C,C]2 | [D,B,]3 [D,G,] [D,D]2 [D,C]2 | [G,B,]4 z2 G,2 | [G,B,]3 [G,B,] [G,D]2 G,2 | %10
 [C,G,]4 [C,G,]2 G,2 | [G,B,]3 [G,B,] [G,D]2 G,2 | [C,G,]6 [C,C]2 | [C,C]3 [C,C] [D,C]2 [E,_B,]2 | %14
 [F,A,]4 [F,C]2 [F,C]2 | [G,C]2 G,2 [G,B,]3 G, | [C,G,]6 |] %17
V:4
 C,2 | C,3 C, E,2 G,2 | A,4 G,2 G,2 | x8 | x6 C,2 | C,3 C, E,2 G,2 | A,4 G,2 x2 | x8 | x6 G,2 | %9
 x6 G,2 | x6 G,2 | x6 G,2 | x8 | x8 | x8 | x2 G,2 x G, x2 | x6 |] %17

